src/assets/icons/female.svg

<svg
  width="76"
  height="68"
  viewBox="0 0 76 68"
  fill="none"
  xmlns="http://www.w3.org/2000/svg"
>
  <g id="female" clip-path="url(#clip0_1059_12116)">
    <g id="female-house">
      <g id="Group 715">
        <rect
          id="Rectangle 396"
          x="12"
          y="27"
          width="47"
          height="28"
          fill="#FFC2C6"
        />
        <rect
          id="Rectangle 396_2"
          x="12"
          y="27"
          width="47"
          height="28"
          fill="url(#paint0_linear_1059_12116)"
        />
        <path
          id="Polygon 14"
          d="M35.5 5L68.842 29H2.15802L35.5 5Z"
          fill="#FFC2C6"
        />
        <path
          id="Polygon 14_2"
          d="M35.5 5L68.842 29H2.15802L35.5 5Z"
          fill="url(#paint1_linear_1059_12116)"
        />
      </g>
      <path
        id="Vector"
        d="M38 37C39.1046 37 40 36.1046 40 35C40 33.8954 39.1046 33 38 33C36.8954 33 36 33.8954 36 35C36 36.1046 36.8954 37 38 37Z"
        fill="#643927"
      />
      <path
        id="Vector_2"
        d="M23 37C24.1046 37 25 36.1046 25 35C25 33.8954 24.1046 33 23 33C21.8954 33 21 33.8954 21 35C21 36.1046 21.8954 37 23 37Z"
        fill="#643927"
      />
      <path
        id="Vector 13"
        d="M28 41C28 41 28 44 30.9986 44C34.2046 44 33.9973 41 33.9973 41"
        stroke="#643927"
        stroke-width="2"
        stroke-linecap="round"
      />
      <line
        id="Line 34"
        x1="20.8471"
        y1="33.6431"
        x2="21.7141"
        y2="33.996"
        stroke="#643927"
        stroke-width="1.3"
        stroke-linecap="round"
      />
      <line
        id="Line 35"
        x1="35.8471"
        y1="33.6431"
        x2="36.7141"
        y2="33.996"
        stroke="#643927"
        stroke-width="1.3"
        stroke-linecap="round"
      />
    </g>
    <g id="icon-female">
      <g id="Vector_3">
        <path
          d="M73.5547 45.6172C73.5547 39.2462 68.371 34.0625 62 34.0625C55.629 34.0625 50.4453 39.2462 50.4453 45.6172C50.4453 51.4935 54.8547 56.3597 60.5391 57.0796V59.1641H58.1484C57.761 59.1641 57.3894 59.318 57.1154 59.592C56.8414 59.8659 56.6875 60.2375 56.6875 60.625C56.6875 61.0125 56.8414 61.3841 57.1154 61.658C57.3894 61.932 57.761 62.0859 58.1484 62.0859H60.5391V64.4766C60.5391 64.864 60.693 65.2356 60.967 65.5096C61.2409 65.7836 61.6125 65.9375 62 65.9375C62.3875 65.9375 62.7591 65.7836 63.033 65.5096C63.307 65.2356 63.4609 64.864 63.4609 64.4766V62.0859H65.8516C66.239 62.0859 66.6106 61.932 66.8846 61.658C67.1586 61.3841 67.3125 61.0125 67.3125 60.625C67.3125 60.2375 67.1586 59.8659 66.8846 59.592C66.6106 59.318 66.239 59.1641 65.8516 59.1641H63.4609V57.0796C69.1453 56.3597 73.5547 51.4935 73.5547 45.6172ZM53.3672 45.6172C53.3672 40.8572 57.24 36.9844 62 36.9844C66.76 36.9844 70.6328 40.8572 70.6328 45.6172C70.6328 50.3772 66.76 54.25 62 54.25C57.24 54.25 53.3672 50.3772 53.3672 45.6172Z"
          fill="#FF90A4"
        />
        <path
          d="M73.5547 45.6172C73.5547 39.2462 68.371 34.0625 62 34.0625C55.629 34.0625 50.4453 39.2462 50.4453 45.6172C50.4453 51.4935 54.8547 56.3597 60.5391 57.0796V59.1641H58.1484C57.761 59.1641 57.3894 59.318 57.1154 59.592C56.8414 59.8659 56.6875 60.2375 56.6875 60.625C56.6875 61.0125 56.8414 61.3841 57.1154 61.658C57.3894 61.932 57.761 62.0859 58.1484 62.0859H60.5391V64.4766C60.5391 64.864 60.693 65.2356 60.967 65.5096C61.2409 65.7836 61.6125 65.9375 62 65.9375C62.3875 65.9375 62.7591 65.7836 63.033 65.5096C63.307 65.2356 63.4609 64.864 63.4609 64.4766V62.0859H65.8516C66.239 62.0859 66.6106 61.932 66.8846 61.658C67.1586 61.3841 67.3125 61.0125 67.3125 60.625C67.3125 60.2375 67.1586 59.8659 66.8846 59.592C66.6106 59.318 66.239 59.1641 65.8516 59.1641H63.4609V57.0796C69.1453 56.3597 73.5547 51.4935 73.5547 45.6172ZM53.3672 45.6172C53.3672 40.8572 57.24 36.9844 62 36.9844C66.76 36.9844 70.6328 40.8572 70.6328 45.6172C70.6328 50.3772 66.76 54.25 62 54.25C57.24 54.25 53.3672 50.3772 53.3672 45.6172Z"
          fill="#FF90A4"
        />
        <path
          d="M73.5547 45.6172C73.5547 39.2462 68.371 34.0625 62 34.0625C55.629 34.0625 50.4453 39.2462 50.4453 45.6172C50.4453 51.4935 54.8547 56.3597 60.5391 57.0796V59.1641H58.1484C57.761 59.1641 57.3894 59.318 57.1154 59.592C56.8414 59.8659 56.6875 60.2375 56.6875 60.625C56.6875 61.0125 56.8414 61.3841 57.1154 61.658C57.3894 61.932 57.761 62.0859 58.1484 62.0859H60.5391V64.4766C60.5391 64.864 60.693 65.2356 60.967 65.5096C61.2409 65.7836 61.6125 65.9375 62 65.9375C62.3875 65.9375 62.7591 65.7836 63.033 65.5096C63.307 65.2356 63.4609 64.864 63.4609 64.4766V62.0859H65.8516C66.239 62.0859 66.6106 61.932 66.8846 61.658C67.1586 61.3841 67.3125 61.0125 67.3125 60.625C67.3125 60.2375 67.1586 59.8659 66.8846 59.592C66.6106 59.318 66.239 59.1641 65.8516 59.1641H63.4609V57.0796C69.1453 56.3597 73.5547 51.4935 73.5547 45.6172ZM53.3672 45.6172C53.3672 40.8572 57.24 36.9844 62 36.9844C66.76 36.9844 70.6328 40.8572 70.6328 45.6172C70.6328 50.3772 66.76 54.25 62 54.25C57.24 54.25 53.3672 50.3772 53.3672 45.6172Z"
          fill="#FF90A4"
        />
      </g>
      <path
        id="Vector_4"
        d="M73.5547 45.6172C73.5547 39.2462 68.371 34.0625 62 34.0625C55.629 34.0625 50.4453 39.2462 50.4453 45.6172C50.4453 51.4935 54.8547 56.3597 60.5391 57.0796V59.1641H58.1484C57.761 59.1641 57.3894 59.318 57.1154 59.592C56.8414 59.8659 56.6875 60.2375 56.6875 60.625C56.6875 61.0125 56.8414 61.3841 57.1154 61.658C57.3894 61.932 57.761 62.0859 58.1484 62.0859H60.5391V64.4766C60.5391 64.864 60.693 65.2356 60.967 65.5096C61.2409 65.7836 61.6125 65.9375 62 65.9375C62.3875 65.9375 62.7591 65.7836 63.033 65.5096C63.307 65.2356 63.4609 64.864 63.4609 64.4766V62.0859H65.8516C66.239 62.0859 66.6106 61.932 66.8846 61.658C67.1586 61.3841 67.3125 61.0125 67.3125 60.625C67.3125 60.2375 67.1586 59.8659 66.8846 59.592C66.6106 59.318 66.239 59.1641 65.8516 59.1641H63.4609V57.0796C69.1453 56.3597 73.5547 51.4935 73.5547 45.6172ZM53.3672 45.6172C53.3672 40.8572 57.24 36.9844 62 36.9844C66.76 36.9844 70.6328 40.8572 70.6328 45.6172C70.6328 50.3772 66.76 54.25 62 54.25C57.24 54.25 53.3672 50.3772 53.3672 45.6172Z"
        fill="url(#paint2_linear_1059_12116)"
      />
    </g>
  </g>
  <defs>
    <linearGradient
      id="paint0_linear_1059_12116"
      x1="35.5"
      y1="27"
      x2="35.5"
      y2="58"
      gradientUnits="userSpaceOnUse"
    >
      <stop stop-color="#FFEBEB" />
      <stop offset="0.72" stop-color="#D9D9D9" stop-opacity="0" />
      <stop offset="1" stop-color="#FF416F" stop-opacity="0.5" />
    </linearGradient>
    <linearGradient
      id="paint1_linear_1059_12116"
      x1="35.5"
      y1="5"
      x2="35.5"
      y2="32"
      gradientUnits="userSpaceOnUse"
    >
      <stop stop-color="#FFEBEB" />
      <stop offset="0.52" stop-color="#D9D9D9" stop-opacity="0" />
      <stop offset="1" stop-color="#FF416F" stop-opacity="0.5" />
    </linearGradient>
    <linearGradient
      id="paint2_linear_1059_12116"
      x1="62"
      y1="34.0625"
      x2="62"
      y2="65.9375"
      gradientUnits="userSpaceOnUse"
    >
      <stop stop-color="#FFC5CF" />
      <stop offset="0.53" stop-color="#FF90A4" stop-opacity="0" />
      <stop offset="1" stop-color="#FF4667" />
    </linearGradient>
    <clipPath id="clip0_1059_12116">
      <rect width="76" height="68" fill="white" />
    </clipPath>
  </defs>
</svg>

<svg xmlns="http://www.w3.org/2000/svg" width="76" height="68" fill="none">
  <g clip-path="url(#a)">
    <path fill="#FFC2C6" d="M12 27h47v28H12z" />
    <path fill="url(#b)" d="M12 27h47v28H12z" />
    <path fill="#FFC2C6" d="m35.5 5 33.342 24H2.158L35.5 5Z" />
    <path fill="url(#c)" d="m35.5 5 33.342 24H2.158L35.5 5Z" />
    <path
      fill="#643927"
      d="M38 37a2 2 0 1 0 0-4 2 2 0 0 0 0 4ZM23 37a2 2 0 1 0 0-4 2 2 0 0 0 0 4Z"
    />
    <path
      stroke="#643927"
      stroke-linecap="round"
      stroke-width="2"
      d="M28 41s0 3 2.999 3c3.206 0 2.998-3 2.998-3"
    />
    <path
      stroke="#643927"
      stroke-linecap="round"
      stroke-width="1.3"
      d="m20.847 33.643.867.353M35.847 33.643l.867.353"
    />
    <path
      fill="#FF90A4"
      d="M73.555 45.617c0-6.37-5.184-11.554-11.555-11.554-6.371 0-11.555 5.183-11.555 11.554 0 5.877 4.41 10.743 10.094 11.463v2.084h-2.39a1.46 1.46 0 0 0 0 2.922h2.39v2.39a1.46 1.46 0 0 0 2.922 0v-2.39h2.39a1.46 1.46 0 0 0 0-2.922h-2.39V57.08c5.684-.72 10.094-5.587 10.094-11.463Zm-20.188 0c0-4.76 3.873-8.633 8.633-8.633 4.76 0 8.633 3.873 8.633 8.633 0 4.76-3.873 8.633-8.633 8.633-4.76 0-8.633-3.873-8.633-8.633Z"
    />
    <path
      fill="#FF90A4"
      d="M73.555 45.617c0-6.37-5.184-11.554-11.555-11.554-6.371 0-11.555 5.183-11.555 11.554 0 5.877 4.41 10.743 10.094 11.463v2.084h-2.39a1.46 1.46 0 0 0 0 2.922h2.39v2.39a1.46 1.46 0 0 0 2.922 0v-2.39h2.39a1.46 1.46 0 0 0 0-2.922h-2.39V57.08c5.684-.72 10.094-5.587 10.094-11.463Zm-20.188 0c0-4.76 3.873-8.633 8.633-8.633 4.76 0 8.633 3.873 8.633 8.633 0 4.76-3.873 8.633-8.633 8.633-4.76 0-8.633-3.873-8.633-8.633Z"
    />
    <path
      fill="#FF90A4"
      d="M73.555 45.617c0-6.37-5.184-11.554-11.555-11.554-6.371 0-11.555 5.183-11.555 11.554 0 5.877 4.41 10.743 10.094 11.463v2.084h-2.39a1.46 1.46 0 0 0 0 2.922h2.39v2.39a1.46 1.46 0 0 0 2.922 0v-2.39h2.39a1.46 1.46 0 0 0 0-2.922h-2.39V57.08c5.684-.72 10.094-5.587 10.094-11.463Zm-20.188 0c0-4.76 3.873-8.633 8.633-8.633 4.76 0 8.633 3.873 8.633 8.633 0 4.76-3.873 8.633-8.633 8.633-4.76 0-8.633-3.873-8.633-8.633Z"
    />
    <path
      fill="url(#d)"
      d="M73.555 45.617c0-6.37-5.184-11.554-11.555-11.554-6.371 0-11.555 5.183-11.555 11.554 0 5.877 4.41 10.743 10.094 11.463v2.084h-2.39a1.46 1.46 0 0 0 0 2.922h2.39v2.39a1.46 1.46 0 0 0 2.922 0v-2.39h2.39a1.46 1.46 0 0 0 0-2.922h-2.39V57.08c5.684-.72 10.094-5.587 10.094-11.463Zm-20.188 0c0-4.76 3.873-8.633 8.633-8.633 4.76 0 8.633 3.873 8.633 8.633 0 4.76-3.873 8.633-8.633 8.633-4.76 0-8.633-3.873-8.633-8.633Z"
    />
  </g>
  <defs>
    <linearGradient
      id="b"
      x1="35.5"
      x2="35.5"
      y1="27"
      y2="58"
      gradientUnits="userSpaceOnUse"
    >
      <stop stop-color="#FFEBEB" />
      <stop offset=".72" stop-color="#D9D9D9" stop-opacity="0" />
      <stop offset="1" stop-color="#FF416F" stop-opacity=".5" />
    </linearGradient>
    <linearGradient
      id="c"
      x1="35.5"
      x2="35.5"
      y1="5"
      y2="32"
      gradientUnits="userSpaceOnUse"
    >
      <stop stop-color="#FFEBEB" />
      <stop offset=".52" stop-color="#D9D9D9" stop-opacity="0" />
      <stop offset="1" stop-color="#FF416F" stop-opacity=".5" />
    </linearGradient>
    <linearGradient
      id="d"
      x1="62"
      x2="62"
      y1="34.063"
      y2="65.938"
      gradientUnits="userSpaceOnUse"
    >
      <stop stop-color="#FFC5CF" />
      <stop offset=".53" stop-color="#FF90A4" stop-opacity="0" />
      <stop offset="1" stop-color="#FF4667" />
    </linearGradient>
    <clipPath id="a"><path fill="#fff" d="M0 0h76v68H0z" /></clipPath>
  </defs>
</svg>
